X: 1
T: Holm Band Tune, The
M: 6/8
L: 1/8
R: jig
K: Amaj
AGA cBA | F2 A d2 f | ecA GAB | cAc B2 E |
AGA cBA | F2 A d2 f | ecA GAB | cAA A2 z:|
Ace aga | ecA d2 f | ecA GAB | cAc B2 E |
Ace aga | ecA d2 f | ecA GAB | cAA A2 z |
Ace aga | ecA d2 f | ecA GAB | cAc B2 E |
AGA cBA | F2 A d2 f | ecA GAB | cAA A2 z ||
